**harm	**harte	**timestamp	**phrase	**leadinstrument	**kern
*M4/4	*M4/4	*	*	*	*
*b:	*b:	*	*	*	*b:
1r;	N	0	.	r	1r;
=1	=1	=1	=1	=1	=1
*>A_intro	*>A_intro	*>A_intro	*>A_intro	*>A_intro	*>A_intro
1i	B:min	0.255	newline	r	1B 1dd 1ff#
=2	=2	=2	=2	=2	=2
1i	B:min	2.488	.	r	1B 1dd 1ff#
=3	=3	=3	=3	=3	=3
1-VI	G:maj	4.72	.	r	1G- 1b- 1dd-
=4	=4	=4	=4	=4	=4
1-VI	G:maj	6.952	.	r	1G- 1b- 1dd-
=5	=5	=5	=5	=5	=5
1i	B:min	9.184	newline	r	1B 1dd 1ff#
=6	=6	=6	=6	=6	=6
1i	B:min	11.325	.	r	1B 1dd 1ff#
=7	=7	=7	=7	=7	=7
1-VI	G:maj	13.466	.	r	1G- 1b- 1dd-
=8	=8	=8	=8	=8	=8
1-VI	G:maj	15.607	.	r	1G- 1b- 1dd-
=9	=9	=9	=9	=9	=9
*>B_verse	*>B_verse	*>B_verse	*>B_verse	*>B_verse	*>B_verse
2-VIIf	A:maj/4	17.748	newline	voice	2A 2cc# 2ee
2-III	D:maj	18.822	.	voice	2D- 2f 2a-
=10	=10	=10	=10	=10	=10
2-VIIf	A:maj/4	19.895	.	voice	2A 2cc# 2ee
2-III	D:maj	20.968	.	voice	2D- 2f 2a-
=11	=11	=11	=11	=11	=11
1i7	B:min9	22.042	.	voice	1B 1dd 1ff# 1aa#
=12	=12	=12	=12	=12	=12
1i7	B:min9	24.189	.	voice	1B 1dd 1ff# 1aa#
=13	=13	=13	=13	=13	=13
2-VIIf	A:maj/4	26.335	newline	voice	2A 2cc# 2ee
2-III	D:maj	27.407	.	voice	2D- 2f 2a-
=14	=14	=14	=14	=14	=14
2-VIIf	A:maj/4	28.478	.	voice	2A 2cc# 2ee
2-III	D:maj	29.549	.	voice	2D- 2f 2a-
=15	=15	=15	=15	=15	=15
1i7	B:min9	30.621	.	voice	1B 1dd 1ff# 1aa#
=16	=16	=16	=16	=16	=16
1i7	B:min9	32.763	.	voice	1B 1dd 1ff# 1aa#
=17	=17	=17	=17	=17	=17
1-VI	G:maj6	34.906	newline	voice	1G- 1b- 1dd-
=18	=18	=18	=18	=18	=18
1-vi	G:min6	37.042	.	voice	1G- 1b-- 1dd-
=19	=19	=19	=19	=19	=19
1i7	B:min7	39.178	.	voice	1B 1dd 1ff# 1aa#
=20	=20	=20	=20	=20	=20
1IV7	E:9	41.313	.	voice	1E 1g# 1b 1dd
=21	=21	=21	=21	=21	=21
1-III	D:maj	43.449	newline	voice	1D- 1f 1a-
=22	=22	=22	=22	=22	=22
1-VI7	G:maj7	45.607	.	voice	1G- 1b- 1dd- 1ff#
=23	=23	=23	=23	=23	=23
1-III	D:maj	47.764	.	voice	1D- 1f 1a-
=24	=24	=24	=24	=24	=24
1-III	D:maj	49.922	.	voice	1D- 1f 1a-
=25	=25	=25	=25	=25	=25
*>B_verse	*>B_verse	*>B_verse	*>B_verse	*>B_verse	*>B_verse
2-VIIf	A:maj/4	52.08	newline	voice	2A 2cc# 2ee
2-III	D:maj	53.154	.	voice	2D- 2f 2a-
=26	=26	=26	=26	=26	=26
2-VIIf	A:maj/4	54.229	.	voice	2A 2cc# 2ee
2-III	D:maj	55.303	.	voice	2D- 2f 2a-
=27	=27	=27	=27	=27	=27
1i7	B:min9	56.377	.	voice	1B 1dd 1ff# 1aa#
=28	=28	=28	=28	=28	=28
1i7	B:min9	58.526	.	voice	1B 1dd 1ff# 1aa#
=29	=29	=29	=29	=29	=29
2-VIIf	A:maj/4	60.674	newline	voice	2A 2cc# 2ee
2-III	D:maj	61.751	.	voice	2D- 2f 2a-
=30	=30	=30	=30	=30	=30
2-VIIf	A:maj/4	62.828	.	voice	2A 2cc# 2ee
2-III	D:maj	63.905	.	voice	2D- 2f 2a-
=31	=31	=31	=31	=31	=31
1i7	B:min9	64.982	.	voice	1B 1dd 1ff# 1aa#
=32	=32	=32	=32	=32	=32
1i7	B:min9	67.135	.	voice	1B 1dd 1ff# 1aa#
=33	=33	=33	=33	=33	=33
1-VI	G:maj6	69.289	newline	voice	1G- 1b- 1dd-
=34	=34	=34	=34	=34	=34
1-vi	G:min6	71.421	.	voice	1G- 1b-- 1dd-
=35	=35	=35	=35	=35	=35
1i7	B:min7	73.553	.	voice	1B 1dd 1ff# 1aa#
=36	=36	=36	=36	=36	=36
1IV7	E:9	75.685	.	voice	1E 1g# 1b 1dd
=37	=37	=37	=37	=37	=37
1-III	D:maj	77.817	newline	voice	1D- 1f 1a-
=38	=38	=38	=38	=38	=38
1-VI7	G:maj7	79.976	.	voice	1G- 1b- 1dd- 1ff#
=39	=39	=39	=39	=39	=39
1-III	D:maj	82.134	.	voice	1D- 1f 1a-
=40	=40	=40	=40	=40	=40
1-III	D:maj	84.293	.	voice	1D- 1f 1a-
=41	=41	=41	=41	=41	=41
*>C_chorus	*>C_chorus	*>C_chorus	*>C_chorus	*>C_chorus	*>C_chorus
2-VIIf	A:maj/4	86.451	newline	voice	2A 2cc# 2ee
2-III	D:maj	87.527	.	voice	2D- 2f 2a-
=42	=42	=42	=42	=42	=42
2-VIIf	A:maj/4	88.603	.	voice	2A 2cc# 2ee
2-III	D:maj	89.678	.	voice	2D- 2f 2a-
=43	=43	=43	=43	=43	=43
1v	F#:min	90.754	.	voice	1F# 1a 1cc#
=44	=44	=44	=44	=44	=44
1v	F#:min	92.905	.	voice	1F# 1a 1cc#
=45	=45	=45	=45	=45	=45
2-VIIf	A:maj/4	95.056	newline	voice	2A 2cc# 2ee
2-III	D:maj	96.121	.	voice	2D- 2f 2a-
=46	=46	=46	=46	=46	=46
2-VIIf	A:maj/4	97.187	.	voice	2A 2cc# 2ee
2-III	D:maj	98.252	.	voice	2D- 2f 2a-
=47	=47	=47	=47	=47	=47
1v	F#:min	99.317	.	voice	1F# 1a 1cc#
=48	=48	=48	=48	=48	=48
1v	F#:min	101.448	.	voice	1F# 1a 1cc#
=49	=49	=49	=49	=49	=49
1-VI	G:maj6	103.579	newline	voice	1G- 1b- 1dd-
=50	=50	=50	=50	=50	=50
1-vi	G:min6	105.743	.	voice	1G- 1b-- 1dd-
=51	=51	=51	=51	=51	=51
1i7	B:min7	107.907	newline	voice	1B 1dd 1ff# 1aa#
=52	=52	=52	=52	=52	=52
1i7	B:min7	110.064	.	voice	1B 1dd 1ff# 1aa#
=53	=53	=53	=53	=53	=53
1-VI	G:maj(9)	112.221	.	voice	1G- 1b- 1dd-
=54	=54	=54	=54	=54	=54
1-VI	G:maj(9)	114.379	.	voice	1G- 1b- 1dd-
=55	=55	=55	=55	=55	=55
1i7	B:min7	116.536	newline	voice	1B 1dd 1ff# 1aa#
=56	=56	=56	=56	=56	=56
1i7	B:min7	118.698	.	voice	1B 1dd 1ff# 1aa#
=57	=57	=57	=57	=57	=57
1-VI	G:maj(9)	120.86	.	voice	1G- 1b- 1dd-
=58	=58	=58	=58	=58	=58
1-VI	G:maj(9)	123.022	.	voice	1G- 1b- 1dd-
=59	=59	=59	=59	=59	=59
*>B_verse	*>B_verse	*>B_verse	*>B_verse	*>B_verse	*>B_verse
2-VIIf	A:maj/4	125.183	newline	voice	2A 2cc# 2ee
2-III	D:maj	126.269	.	voice	2D- 2f 2a-
=60	=60	=60	=60	=60	=60
2-VIIf	A:maj/4	127.354	.	voice	2A 2cc# 2ee
2-III	D:maj	128.44	.	voice	2D- 2f 2a-
=61	=61	=61	=61	=61	=61
1i7	B:min9	129.525	.	voice	1B 1dd 1ff# 1aa#
=62	=62	=62	=62	=62	=62
1i7	B:min9	131.696	.	voice	1B 1dd 1ff# 1aa#
=63	=63	=63	=63	=63	=63
2-VIIf	A:maj/4	133.867	newline	voice	2A 2cc# 2ee
2-III	D:maj	134.952	.	voice	2D- 2f 2a-
=64	=64	=64	=64	=64	=64
2-VIIf	A:maj/4	136.036	.	voice	2A 2cc# 2ee
2-III	D:maj	137.121	.	voice	2D- 2f 2a-
=65	=65	=65	=65	=65	=65
1i7	B:min9	138.206	.	voice	1B 1dd 1ff# 1aa#
=66	=66	=66	=66	=66	=66
1i7	B:min9	140.375	.	voice	1B 1dd 1ff# 1aa#
=67	=67	=67	=67	=67	=67
1-VI	G:maj6	142.545	newline	voice	1G- 1b- 1dd-
=68	=68	=68	=68	=68	=68
1-vi	G:min6	144.709	.	voice	1G- 1b-- 1dd-
=69	=69	=69	=69	=69	=69
1i7	B:min7	146.873	.	voice	1B 1dd 1ff# 1aa#
=70	=70	=70	=70	=70	=70
1IV7	E:9	149.037	.	voice	1E 1g# 1b 1dd
=71	=71	=71	=71	=71	=71
1-III	D:maj	151.201	newline	voice	1D- 1f 1a-
=72	=72	=72	=72	=72	=72
1-VI7	G:maj7	153.346	.	voice	1G- 1b- 1dd- 1ff#
=73	=73	=73	=73	=73	=73
1-III	D:maj	155.49	.	voice	1D- 1f 1a-
=74	=74	=74	=74	=74	=74
1-III	D:maj	157.635	.	voice	1D- 1f 1a-
=75	=75	=75	=75	=75	=75
*>C_chorus	*>C_chorus	*>C_chorus	*>C_chorus	*>C_chorus	*>C_chorus
2-VIIf	A:maj/4	159.779	newline	voice	2A 2cc# 2ee
2-III	D:maj	160.858	.	voice	2D- 2f 2a-
=76	=76	=76	=76	=76	=76
2-VIIf	A:maj/4	161.937	.	voice	2A 2cc# 2ee
2-III	D:maj	163.016	.	voice	2D- 2f 2a-
=77	=77	=77	=77	=77	=77
1v	F#:min	164.095	.	voice	1F# 1a 1cc#
=78	=78	=78	=78	=78	=78
1v	F#:min	166.253	.	voice	1F# 1a 1cc#
=79	=79	=79	=79	=79	=79
2-VIIf	A:maj/4	168.411	newline	voice	2A 2cc# 2ee
2-III	D:maj	169.48	.	voice	2D- 2f 2a-
=80	=80	=80	=80	=80	=80
2-VIIf	A:maj/4	170.549	.	voice	2A 2cc# 2ee
2-III	D:maj	171.618	.	voice	2D- 2f 2a-
=81	=81	=81	=81	=81	=81
1v	F#:min	172.688	.	voice	1F# 1a 1cc#
=82	=82	=82	=82	=82	=82
1v	F#:min	174.826	.	voice	1F# 1a 1cc#
=83	=83	=83	=83	=83	=83
1-VI	G:maj6	176.964	newline	voice	1G- 1b- 1dd-
=84	=84	=84	=84	=84	=84
1-vi	G:min6	179.16	.	voice	1G- 1b-- 1dd-
=85	=85	=85	=85	=85	=85
1i7	B:min7	181.355	newline	voice	1B 1dd 1ff# 1aa#
=86	=86	=86	=86	=86	=86
1i7	B:min7	183.525	.	voice	1B 1dd 1ff# 1aa#
=87	=87	=87	=87	=87	=87
1-VI	G:maj(9)	185.695	.	voice	1G- 1b- 1dd-
=88	=88	=88	=88	=88	=88
1-VI	G:maj(9)	187.865	.	voice	1G- 1b- 1dd-
=89	=89	=89	=89	=89	=89
1i7	B:min7	190.034	newline	voice	1B 1dd 1ff# 1aa#
=90	=90	=90	=90	=90	=90
1i7	B:min7	192.182	.	voice	1B 1dd 1ff# 1aa#
=91	=91	=91	=91	=91	=91
1-VI	G:maj(9)	194.329	.	voice	1G- 1b- 1dd-
=92	=92	=92	=92	=92	=92
1-VI	G:maj(9)	196.476	.	voice	1G- 1b- 1dd-
=93	=93	=93	=93	=93	=93
*>C_chorus	*>C_chorus	*>C_chorus	*>C_chorus	*>C_chorus	*>C_chorus
2-VIIf	A:maj/4	198.623	newline	voice	2A 2cc# 2ee
2-III	D:maj	199.695	.	voice	2D- 2f 2a-
=94	=94	=94	=94	=94	=94
2-VIIf	A:maj/4	200.767	.	voice	2A 2cc# 2ee
2-III	D:maj	201.839	.	voice	2D- 2f 2a-
=95	=95	=95	=95	=95	=95
1v	F#:min	202.911	.	voice	1F# 1a 1cc#
=96	=96	=96	=96	=96	=96
1v	F#:min	205.055	.	voice	1F# 1a 1cc#
=97	=97	=97	=97	=97	=97
2-VIIf	A:maj/4	207.199	newline	voice	2A 2cc# 2ee
2-III	D:maj	208.276	.	voice	2D- 2f 2a-
=98	=98	=98	=98	=98	=98
2-VIIf	A:maj/4	209.353	.	voice	2A 2cc# 2ee
2-III	D:maj	210.43	.	voice	2D- 2f 2a-
=99	=99	=99	=99	=99	=99
1v	F#:min	211.507	.	voice	1F# 1a 1cc#
=100	=100	=100	=100	=100	=100
1v	F#:min	213.661	.	voice	1F# 1a 1cc#
=101	=101	=101	=101	=101	=101
1-VI	G:maj6	215.815	newline	voice	1G- 1b- 1dd-
=102	=102	=102	=102	=102	=102
1-vi	G:min6	217.939	.	voice	1G- 1b-- 1dd-
=103	=103	=103	=103	=103	=103
*>_fadeout	*>_fadeout	*>_fadeout	*>_fadeout	*>_fadeout	*>_fadeout
1i7	B:min7	220.063	newline	voice	1B 1dd 1ff# 1aa#
=104	=104	=104	=104	=104	=104
1i7	B:min7	222.237	.	voice	1B 1dd 1ff# 1aa#
=105	=105	=105	=105	=105	=105
1-VI	G:maj(9)	224.412	.	voice	1G- 1b- 1dd-
=106	=106	=106	=106	=106	=106
1-VI	G:maj(9)	226.587	.	voice	1G- 1b- 1dd-
=107	=107	=107	=107	=107	=107
1i7	B:min7	228.761	newline	voice	1B 1dd 1ff# 1aa#
=108	=108	=108	=108	=108	=108
1i7	B:min7	230.016	.	voice	1B 1dd 1ff# 1aa#
=109	=109	=109	=109	=109	=109
1-VI	G:maj(9)	231.27	.	voice	1G- 1b- 1dd-
=110	=110	=110	=110	=110	=110
1-VI	G:maj(9)	232.524	.	voice	1G- 1b- 1dd-
1r;	N	233.779	.	r	1r;
1r;	N	239.229	.	r	1r;
*-	*-	*-	*-	*-	*-
!!!OTL: Eye In The Sky
!!!COC: The Alan Parsons Project
!!!BillboardChartDate: 1982/07/31
!!!BillboardPeak: 3
!!!BillboardWeeksOnChart: 25
!!!SampleTargetRank: 33
!!!SampleActualRank: 35
!!!SampleID#: 0956
!!!RDF**harmony: **recip + pitch class of root + harmonic quality
!!!RDF**harte: Chris Harte's syntax, used by MIREX
!!!RDF**phrase: newline = linebreak in original McGill transcription
!!!RDF**timestamp: McGill audio timestamp in seconds
!!!RDF**leadinstrument: original McGill primary instrumentation annotation
!!!RDT: 2017/01/12/
!!!ENC: Nathaniel Condit-Schultz
!!!EST: Awating manual error checking and editing.
